assets/img/sort_top.svg

<svg width="325" height="193" viewBox="0 0 325 193" fill="none" xmlns="http://www.w3.org/2000/svg">
<path d="M139.173 9.375C151.829 -3.125 172.383 -3.125 185.039 9.375L314.639 137.375C323.953 146.575 326.687 160.275 321.625 172.275C316.562 184.275 304.817 192.075 291.655 192.075H32.4562C19.395 192.075 7.54883 184.275 2.48635 172.275C-2.57612 160.275 0.258864 146.575 9.47257 137.375L139.072 9.375H139.173ZM139.173 9.375C151.829 -3.125 172.383 -3.125 185.039 9.375L314.639 137.375C323.953 146.575 326.687 160.275 321.625 172.275C316.562 184.275 304.817 192.075 291.655 192.075H32.4562C19.395 192.075 7.54883 184.275 2.48635 172.275C-2.57612 160.275 0.258864 146.575 9.47257 137.375L139.072 9.375" fill="black"/>
</svg>

<svg xmlns="http://www.w3.org/2000/svg" fill="none" viewBox="0 0 325 193"><path fill="#000" d="M139.173 9.375c12.656-12.5 33.21-12.5 45.866 0l129.6 128c9.314 9.2 12.048 22.9 6.986 34.9-5.063 12-16.808 19.8-29.97 19.8H32.456c-13.061 0-24.907-7.8-29.97-19.8-5.062-12-2.227-25.7 6.987-34.9l129.599-128h.101Zm0 0c12.656-12.5 33.21-12.5 45.866 0l129.6 128c9.314 9.2 12.048 22.9 6.986 34.9-5.063 12-16.808 19.8-29.97 19.8H32.456c-13.061 0-24.907-7.8-29.97-19.8-5.062-12-2.227-25.7 6.987-34.9l129.599-128"/></svg>
